modules/material-icons/icons/collection-text.svg

<?xml version="1.0" encoding="UTF-8" standalone="no"?>
<svg
   xmlns:dc="http://purl.org/dc/elements/1.1/"
   xmlns:cc="http://creativecommons.org/ns#"
   xmlns:rdf="http://www.w3.org/1999/02/22-rdf-syntax-ns#"
   xmlns:svg="http://www.w3.org/2000/svg"
   xmlns="http://www.w3.org/2000/svg"
   version="1.1"
   id="svg2"
   viewBox="0 0 480 480"
   height="480"
   width="480">
  <metadata
     id="metadata10">
    <rdf:RDF>
      <cc:Work
         rdf:about="">
        <dc:format>image/svg+xml</dc:format>
        <dc:type
           rdf:resource="http://purl.org/dc/dcmitype/StillImage" />
        <dc:title></dc:title>
      </cc:Work>
    </rdf:RDF>
  </metadata>
  <defs
     id="defs8" />
  <path
     id="path4"
     d="m 80,120 -40,0 0,280 c 0,22 18,40 40,40 l 280,0 0,-40 -280,0 0,-280 z M 400,40 160,40 c -22,0 -40,18 -40,40 l 0,240 c 0,22 18,40 40,40 l 240,0 c 22,0 40,-18 40,-40 L 440,80 C 440,58 422,40 400,40 Z m -20,180 -200,0 0,-40 200,0 0,40 z m -80,80 -120,0 0,-40 120,0 0,40 z m 80,-160 -200,0 0,-40 200,0 0,40 z" />
</svg>

<svg xmlns="http://www.w3.org/2000/svg" height="480" width="480"><path d="M80 120H40v280c0 22 18 40 40 40h280v-40H80V120zm320-80H160c-22 0-40 18-40 40v240c0 22 18 40 40 40h240c22 0 40-18 40-40V80c0-22-18-40-40-40zm-20 180H180v-40h200v40zm-80 80H180v-40h120v40zm80-160H180v-40h200v40z"/></svg>
